libs/ui/packages/crypto-icons/src/svg/WGR.svg

<svg width="24" height="24" viewBox="0 0 24 24" fill="none">
<path d="M19.4197 7.78976C19.5367 7.98851 19.5209 8.19701 19.4047 8.40101C19.2307 8.67851 19.0702 8.96126 18.9044 9.24101C18.4499 10.018 17.9954 10.795 17.5394 11.572C16.6293 13.118 15.7183 14.6635 14.8064 16.2085C14.7553 16.3035 14.6777 16.3815 14.583 16.433C14.4883 16.4846 14.3806 16.5074 14.2732 16.4988C14.0429 16.4883 13.8794 16.3743 13.7707 16.1755C13.6589 15.9768 13.5427 15.7803 13.4257 15.5823C13.0432 14.9283 12.6592 14.2758 12.2759 13.624C12.1904 13.4763 12.1027 13.3315 12.0044 13.168C11.9084 13.3308 11.8177 13.4755 11.7322 13.624L10.5824 15.5815C10.465 15.7781 10.35 15.9761 10.2374 16.1755C10.1287 16.3743 9.96592 16.4883 9.73492 16.4988C9.62753 16.5068 9.52009 16.4837 9.4255 16.4323C9.33091 16.3808 9.25319 16.3031 9.20167 16.2085C8.76892 15.4803 8.34142 14.752 7.91167 14.0208C7.42902 13.2055 6.94802 12.3892 6.46867 11.572C6.01492 10.795 5.55967 10.018 5.10367 9.24101C4.93867 8.96126 4.77517 8.67851 4.60417 8.40101C4.47967 8.19701 4.46167 7.98851 4.57792 7.78976C4.69192 7.59401 4.87567 7.49951 5.11192 7.49951C6.58792 7.50476 8.06467 7.51451 9.54067 7.50176C9.91342 7.49951 10.1362 7.64201 10.3102 7.95251C10.6829 8.61776 11.0797 9.26651 11.4629 9.92426C11.6234 10.2018 11.7817 10.4815 11.9444 10.759C11.9572 10.7793 11.9782 10.795 11.9969 10.8123C12.0169 10.798 12.0342 10.7802 12.0479 10.7598C12.2092 10.4823 12.3667 10.2018 12.5302 9.92426C12.9157 9.26651 13.3102 8.61476 13.6829 7.95251C13.8562 7.64201 14.0789 7.49951 14.4517 7.50251C15.9284 7.51451 17.4044 7.50476 18.8812 7.49951C19.1219 7.49951 19.3057 7.59401 19.4197 7.78976ZM11.2874 12.106C11.3019 12.0755 11.3095 12.0422 11.3099 12.0084C11.3103 11.9746 11.3034 11.9411 11.2897 11.9103C11.2147 11.7573 11.1157 11.6125 11.0279 11.4618C10.4999 10.5603 9.97117 9.66176 9.44542 8.75801C9.39142 8.66576 9.32917 8.63276 9.22042 8.63276C8.23642 8.63801 7.25167 8.63801 6.26767 8.64026C6.22117 8.64026 6.17467 8.64776 6.10717 8.65301C7.30867 10.7028 8.49967 12.7375 9.70492 14.7925C9.80842 14.62 9.89617 14.482 9.97942 14.3395C10.4189 13.597 10.8547 12.8523 11.2874 12.106ZM14.2949 14.7925C15.4987 12.7375 16.6904 10.7028 17.8949 8.65301C17.8252 8.64776 17.7809 8.64026 17.7344 8.64026C16.7497 8.63801 15.7657 8.63801 14.7817 8.63276C14.6729 8.63276 14.6107 8.66576 14.5567 8.75726C14.0298 9.65915 13.5023 10.5606 12.9742 11.4618C12.8857 11.6095 12.7897 11.7543 12.7117 11.9103C12.6976 11.941 12.6904 11.9744 12.6904 12.0081C12.6904 12.0419 12.6976 12.0753 12.7117 12.106C13.1467 12.8515 13.5824 13.5963 14.0204 14.3395C14.1029 14.482 14.1914 14.6223 14.2949 14.7925Z" fill="#B80000"/>
</svg>

<svg width="24" height="24" viewBox="0 0 24 24" fill="none"><path fill="#b80000" d="M19.42 7.79c.117.199.1.407-.015.611-.174.278-.335.56-.5.84l-1.366 2.331q-1.364 2.32-2.733 4.637a.55.55 0 0 1-.533.29.57.57 0 0 1-.502-.323q-.169-.298-.345-.594l-1.15-1.958a27 27 0 0 0-.272-.456c-.096.163-.186.308-.272.456l-1.15 1.957q-.175.295-.345.595a.57.57 0 0 1-.502.323.56.56 0 0 1-.533-.29c-.433-.729-.86-1.457-1.29-2.188q-.724-1.224-1.443-2.449L5.104 9.241q-.245-.421-.5-.84c-.124-.204-.142-.412-.026-.611.114-.196.298-.29.534-.29 1.476.005 2.953.015 4.429.002.372-.002.595.14.77.45.372.666.769 1.315 1.152 1.972q.239.418.481.835c.013.02.034.036.053.053a.2.2 0 0 0 .05-.052c.162-.278.32-.558.483-.836.386-.657.78-1.31 1.153-1.971.173-.311.396-.453.769-.45 1.476.012 2.952.002 4.43-.003.24 0 .424.094.538.29m-8.133 4.316a.23.23 0 0 0 .003-.196c-.075-.153-.174-.297-.262-.448-.528-.902-1.057-1.8-1.583-2.704-.054-.092-.116-.125-.225-.125q-1.476.006-2.952.007c-.047 0-.093.008-.16.013l3.597 6.14c.103-.173.191-.311.274-.453q.66-1.115 1.308-2.234m3.008 2.687c1.204-2.055 2.395-4.09 3.6-6.14-.07-.005-.114-.013-.16-.013q-1.478-.001-2.953-.007c-.11 0-.171.033-.225.124l-1.583 2.705c-.088.148-.184.292-.262.448a.23.23 0 0 0 0 .196q.652 1.118 1.308 2.233c.083.143.171.283.275.454"/></svg>
